X:127
T:Abbey's Green Isle
T:Denis Murphy's
R:slide
H:Also in G, see #113
D:Dennis Doody
Z:id:hn-slide-127
M:6/8
L:1/8
K:A
c3 cBc | ecB A2B | cBc e2c | B2c A2B |
c2c cBc | ecB A2B | c2f f2e | f3 f2e :|
|: c2a a2g | a2f ecB | c2a a2g | a3 a2b |
c'ba bag | a2f gfe | c2f f2e | f3 f2e :|

